X: 28
T: Lance Dance Song (b)
N: Derived from pawnee28.krn
O: Oklahoma, U.S.A.
N: from Pawnee Music by Frances Densmore, 1926
Z: transcribed to **kern format by David Huron, August 2000
C: Skidi and Chaui Bands, 1919
L: 1/8
M: 3/4
Q: 1/4=88
K: B clef=treble
%%linebreak <none>
c [I:setbarnb 1]| 
(3c c c c> cB2 | 
(3G G G G> GB2 | 
(3G G G G> G G3/ G/ | 
(3F F F F> G F z | 
(3B G G G> G B3/ G/[M:2/4] ]|:  
(3F F F F3/ F/ [I:setbarnb 7]| 
E2C/ B,3/[M:3/4] | 
C> C C> CB,2 | 
(3G, G, G, G,> B,B,2 | 
(3G, G, G, G,> B,G,2[M:2/4] | 
(3F, F, F,F,2[M:3/4] | 
(3G G G G> B B3/ G/ :|]  



